packages/vibrant-icons/assets/icons/School/Thin.svg

<svg fill="none" height="24" viewBox="0 0 24 24" width="24" xmlns="http://www.w3.org/2000/svg"><g fill="#0c0c0c"><path d="m12 11.75c1.2426 0 2.25-1.0074 2.25-2.25 0-1.24264-1.0074-2.25-2.25-2.25s-2.25 1.00736-2.25 2.25c0 1.2426 1.0074 2.25 2.25 2.25z"/><path clip-rule="evenodd" d="m18.5 9.5h3.75c.2761 0 .5.22386.5.5v11.3504c0 .2761-.2239.5-.5.5h-20.5c-.27614 0-.5-.2239-.5-.5v-11.3504c0-.27614.22386-.5.5-.5h3.75v-4.07021c0-.17363.09008-.33483.23795-.42583l5.99995-3.69231c.1607-.09889.3633-.09889.5241 0l6 3.69231c.1479.091.238.2522.238.42583zm2.55 1.7v8.9504h-18.1v-8.9504h4.25v-5.09966l4.7999-2.95384 4.8001 2.95385v5.09965z" fill-rule="evenodd"/></g></svg>

<svg width="24" height="24" viewBox="0 0 24 24" fill="none" xmlns="http://www.w3.org/2000/svg">
<path d="M12 11.75C13.2426 11.75 14.25 10.7426 14.25 9.5C14.25 8.25736 13.2426 7.25 12 7.25C10.7574 7.25 9.75 8.25736 9.75 9.5C9.75 10.7426 10.7574 11.75 12 11.75Z" fill="#0C0C0C"/>
<path fill-rule="evenodd" clip-rule="evenodd" d="M18.5 9.5H22.25C22.5261 9.5 22.75 9.72386 22.75 10V21.3504C22.75 21.6265 22.5261 21.8504 22.25 21.8504H1.75C1.47386 21.8504 1.25 21.6265 1.25 21.3504V10C1.25 9.72386 1.47386 9.5 1.75 9.5H5.5V5.42979C5.5 5.25616 5.59008 5.09496 5.73795 5.00396L11.7379 1.31165C11.8986 1.21276 12.1012 1.21276 12.262 1.31165L18.262 5.00396C18.4099 5.09496 18.5 5.25616 18.5 5.42979V9.5ZM21.05 11.2V20.1504H2.95V11.2H7.2V6.10034L11.9999 3.1465L16.8 6.10035V11.2H21.05Z" fill="#0C0C0C"/>
</svg>
